X: 28353
T: Muineira De Casu
R: jig
M: 6/8
K: Gmajor
|:efe dcd|edc Acd|efe dBc|1 A3 zcd:|2 A3 agf||
|:ecd e2f|edc Acd|efe dcd|e3 agf|
ecd e2f|edc Acd|efe dcB|1 A3 agf:|2 A3 zBc||
|:d3 zcd|edc ABc|d3 zcB|cA2 zBc|
d3 zcd|edc Acd|efe dcB|1 A3 zBc:|2 A3 jzcd||

